build/system/LoaderOutline.svg

<svg xmlns="http://www.w3.org/2000/svg" fill="none" viewBox="0 0 24 24" focusable="false"><path d="M0 0H24V24H0z"/><path fill="#74767B" fill-rule="evenodd" d="M12.0071 3C12.3661 3 12.6571 3.29101 12.6571 3.65L12.6571 7.35C12.6571 7.70899 12.3661 8 12.0071 8C11.6481 8 11.3571 7.70899 11.3571 7.35L11.3571 3.65C11.3571 3.29101 11.6481 3 12.0071 3ZM9.17153 9.17161C8.91769 9.42545 8.50614 9.42545 8.25229 9.17161L5.636 6.55531C5.50908 6.42839 5.44562 6.26204 5.44562 6.09569C5.44562 5.92934 5.50908 5.76299 5.636 5.63607C5.88984 5.38223 6.3014 5.38223 6.55524 5.63607L9.17153 8.25237C9.29845 8.37929 9.36191 8.54564 9.36191 8.71199C9.36191 8.87834 9.29845 9.04469 9.17153 9.17161ZM8 12C8 12.359 7.70899 12.65 7.35 12.65L3.65 12.65C3.29101 12.65 3 12.359 3 12C3 11.641 3.29101 11.35 3.65 11.35L7.35 11.35C7.70899 11.35 8 11.641 8 12ZM21 12C21 12.359 20.709 12.65 20.35 12.65L16.65 12.65C16.291 12.65 16 12.359 16 12C16 11.641 16.291 11.35 16.65 11.35L20.35 11.35C20.709 11.35 21 11.641 21 12ZM18.3639 18.364C18.1101 18.6178 17.6985 18.6178 17.4447 18.364L14.8284 15.7477C14.7015 15.6208 14.638 15.4544 14.638 15.2881C14.638 15.1217 14.7015 14.9554 14.8284 14.8285C15.0822 14.5746 15.4938 14.5746 15.7476 14.8285L18.3639 17.4447C18.4908 17.5717 18.5543 17.738 18.5543 17.9044C18.5543 18.0707 18.4908 18.2371 18.3639 18.364ZM9.17869 14.8285C9.30561 14.9554 9.36907 15.1217 9.36907 15.2881C9.36907 15.4544 9.30561 15.6208 9.17869 15.7477L6.56239 18.364C6.30855 18.6178 5.89699 18.6178 5.64315 18.364C5.51623 18.2371 5.45277 18.0707 5.45277 17.9044C5.45277 17.738 5.51623 17.5717 5.64315 17.4448L8.25945 14.8285C8.51329 14.5746 8.92484 14.5746 9.17869 14.8285ZM12.0071 16C12.3661 16 12.6571 16.291 12.6571 16.65L12.6571 20.35C12.6571 20.709 12.3661 21 12.0071 21C11.6481 21 11.3571 20.709 11.3571 20.35L11.3571 16.65C11.3571 16.291 11.6481 16 12.0071 16Z"/></svg>

<svg xmlns="http://www.w3.org/2000/svg" fill="none" viewBox="0 0 24 24" focusable="false"><path fill="#74767B" fill-rule="evenodd" d="M12 3c.36 0 .65.29.65.64v3.71c0 .35-.29.65-.65.65s-.65-.3-.65-.65V3.64c0-.35.29-.64.65-.64M9.17 9.17c-.26.25-.67.25-.92 0L5.63 6.55a.64.64 0 0 1-.19-.46c0-.17.06-.33.19-.46.25-.25.67-.25.92 0l2.62 2.62c.12.12.19.29.19.46 0 .16-.07.33-.19.46M8 12c0 .35-.3.65-.65.65H3.64c-.35 0-.64-.3-.64-.65 0-.36.29-.65.64-.65h3.71c.35 0 .65.29.65.65m13 0c0 .35-.3.65-.65.65h-3.71c-.35 0-.64-.3-.64-.65 0-.36.29-.65.64-.65h3.71c.35 0 .65.29.65.65m-2.64 6.36c-.26.25-.67.25-.92 0l-2.62-2.62a.66.66 0 0 1-.19-.46c0-.16.07-.33.19-.46.26-.25.67-.25.92 0l2.62 2.62c.13.13.19.29.19.46s-.06.33-.19.46m-9.19-3.54c.13.13.19.3.19.46 0 .17-.06.34-.19.46l-2.61 2.62c-.26.25-.67.25-.92 0a.64.64 0 0 1-.19-.46c0-.17.06-.33.19-.46l2.61-2.62c.26-.25.67-.25.92 0M12 16c.36 0 .65.29.65.65v3.7c0 .35-.29.65-.65.65s-.65-.3-.65-.65v-3.7c0-.36.29-.65.65-.65"/></svg>
